X: 1
T: Marriage May Become A Curse
M: 2/4
L: 1/8
R: polka
K: Dmaj
|: B | AB/A/ F/G/A/F/ | BB AF/A/ | Bc/d/ cd/e/ | d/e/f/g/ ea |
AB/A/ FG/A/ | BB A2 | A/B/c/d/ B/c/d/e/ | fe d :|
|: A | fa/f/ ed/c/ | de c2 | B/c/d/e/ c/d/e/f/ | d/e/f/g/ e2 |
[1 ff e2 | dd cd/c/ | Bd/B/ ce/c/ | dc d :|
[2 AB/A/ FG/A/ | BB A2 | AB/c/ de | fe d ||
